outputs/icons/date_time/calendar_gantt_round.svg

<svg xmlns="http://www.w3.org/2000/svg" width="1200" height="1200" fill="none"><path fill="#000" d="M200.232 250c-27.472 0-49.748 22.26-49.768 49.732L150 950c0 55 44.5 100 100 100h600c27.615 0 50-22.385 50-50s-22.385-50-50-50H300c-27.5 0-50-22.5-50-50V299.767C250 272.282 227.718 250 200.232 250"/><path fill="#000" d="M725 800c-41.42 0-75-33.58-75-75s33.58-75 75-75h250c41.42 0 75 33.58 75 75s-33.58 75-75 75zM400 475c0 41.42 33.578 75 75 75h250c41.42 0 75-33.58 75-75 0-41.422-33.58-75-75-75H475c-41.422 0-75 33.578-75 75"/></svg>

<svg width="1200" height="1200" viewBox="0 0 1200 1200" fill="none" xmlns="http://www.w3.org/2000/svg"><path d="M200.232 250C172.76 250 150.484 272.26 150.464 299.732L150 950C150 1005 194.5 1050 250 1050H850C877.615 1050 900 1027.615 900 1000C900 972.385 877.615 950 850 950H300C272.5 950 250 927.5 250 900V299.767C250 272.282 227.718 250 200.232 250Z" fill="#1D1E23"/><path d="M725 800C683.58 800 650 766.42 650 725C650 683.58 683.58 650 725 650H975C1016.42 650 1050 683.58 1050 725C1050 766.42 1016.42 800 975 800H725Z" fill="#1D1E23"/><path d="M400 475C400 516.42 433.578 550 475 550H725C766.42 550 800 516.42 800 475C800 433.578 766.42 400 725 400H475C433.578 400 400 433.578 400 475Z" fill="#1D1E23"/></svg>
